X: 50
T: Wode jiaxiang duo meihao (Wie schoen ist meine Heimat)
%%abc-version 2.0
%%abcx-abcm2ps-target-version 5.9.1 (29 Sep 2008)
%%abc-creator hum2abc beta
%%abcx-conversion-date 2013/10/02 07:44:27
%%abc-edited-by Helmut Schaffrath
%%humdrum-veritas 3460512685
%%humdrum-veritas-data 58432993
%%continueall 1
%%barnumbers 0
L: 1/16
M: 2/4
K: G
d2> g2 B d A B [I:setbarnb 1]| 
G2 A B E2 D2 | 
d2> g2 B d A B | 
d4d4 | 
d2> g2 B2 d2 | 
G2 A B E2 D2 | 
G2 B, D E G E D | 
D4D4 | 
G2 B,2 D2 E2 | 
G2 G EG4 | 
G2 G A d2 e d | 
B4G4 | 
d2 e g B2 d2 | 
G2 B2 E2 D2 | 
G2 B, D E G E D | 
D4D4 |]  



